X:125
T:Mountain Grove 
R:
C:Bruce Osborne  --  Mar. 1993
Z:abc by bosborne@kos.net
M:3/4
L:1/8
K:F
AB|c3 d cB|A3 B AG|F2 A2 (3FED|C2 F2 FA|\
c3 d cA|F3 e (3fga|g4 [Bg][B g]|[c4 g4] AB|\
c3 d cB|A3 B AG|F2 A2 (3FED|C2 F2 A,B,|\
C3 F Ac|B3 G EG|F3 E FG|F4||\
A,B,|C3 F Ac|B3 G EG|F3 A ce|[A4 f4] A,B,|\
C3 F Ac|f3 c fa|g4 [Bg][B g]|[c4 g4] A,B,|\
C3 F Ac|B3 G EG|F3 A cA|F4 A,B,|\
C3 F Ac|B3 G EG|F3 E FG|F4||
